polaris-icons/icons/new-icons/RecentSearchesMajor.svg

<svg width="20" height="20" viewBox="0 0 20 20" fill="none" xmlns="http://www.w3.org/2000/svg">
<path d="M9.75 6.5C9.75 6.08579 9.41421 5.75 9 5.75C8.58579 5.75 8.25 6.08579 8.25 6.5V9C8.25 9.28408 8.4105 9.54378 8.66459 9.67082L10.1646 10.4208C10.5351 10.6061 10.9856 10.4559 11.1708 10.0854C11.3561 9.71493 11.2059 9.26442 10.8354 9.07918L9.75 8.53647V6.5Z" fill="#4A4A4A"/>
<path fill-rule="evenodd" clip-rule="evenodd" d="M9 14.5C10.2484 14.5 11.3996 14.0841 12.3226 13.3833L15.2197 16.2803C15.5126 16.5732 15.9874 16.5732 16.2803 16.2803C16.5732 15.9874 16.5732 15.5126 16.2803 15.2197L13.3833 12.3226C14.0841 11.3996 14.5 10.2484 14.5 9C14.5 5.96243 12.0376 3.5 9 3.5C5.96243 3.5 3.5 5.96243 3.5 9C3.5 12.0376 5.96243 14.5 9 14.5ZM9 13C11.2091 13 13 11.2091 13 9C13 6.79086 11.2091 5 9 5C6.79086 5 5 6.79086 5 9C5 11.2091 6.79086 13 9 13Z" fill="#4A4A4A"/>
</svg>

<svg viewBox="0 0 20 20" xmlns="http://www.w3.org/2000/svg"><path d="M9.75 6.5a.75.75 0 0 0-1.5 0v2.5c0 .284.16.544.415.67l1.5.75a.75.75 0 1 0 .67-1.34l-1.085-.544v-2.036Z" fill="#5C5F62"/><path fill-rule="evenodd" d="M9 14.5c1.248 0 2.4-.416 3.323-1.117l2.897 2.897a.75.75 0 1 0 1.06-1.06l-2.897-2.897a5.5 5.5 0 1 0-4.383 2.177Zm0-1.5a4 4 0 1 0 0-8 4 4 0 0 0 0 8Z" fill="#5C5F62"/></svg>
